packages/components/Atoms/Icon/assets/img/rpl_icon_youtube_channel.svg

<svg width="16" height="12" viewBox="0 0 16 12" overflow="visible" xmlns="http://www.w3.org/2000/svg">
  <path fill-rule="evenodd" clip-rule="evenodd"
    d="M14.4564 0.796075C14.6933 1.02896 14.8649 1.31997 14.954 1.64H14.952C15.272 2.81 15.272 6 15.272 6C15.272 6 15.272 9.191 14.952 10.361C14.8628 10.6809 14.6912 10.9717 14.4542 11.2045C14.2173 11.4372 13.9234 11.6036 13.602 11.687C12.411 12 7.635 12 7.635 12C7.635 12 2.86 12 1.67 11.687C1.34849 11.6034 1.05457 11.4368 0.817649 11.2039C0.580732 10.971 0.409126 10.68 0.32 10.36C0 9.19 0 6 0 6C0 6 0 2.81 0.32 1.64C0.409278 1.32015 0.580951 1.02935 0.817858 0.796652C1.05477 0.563957 1.3486 0.397527 1.67 0.314C2.861 0 7.635 0 7.635 0C7.635 0 12.411 0 13.604 0.313C13.9255 0.396614 14.2194 0.563195 14.4564 0.796075ZM10.91 6L6.545 3.27299V8.727L10.91 6Z"
    fill="inherit" />
</svg>

<svg width="16" height="12" overflow="visible" xmlns="http://www.w3.org/2000/svg"><path fill-rule="evenodd" clip-rule="evenodd" d="M14.456.796c.237.233.409.524.498.844h-.002c.32 1.17.32 4.36.32 4.36s0 3.191-.32 4.361a1.896 1.896 0 01-1.35 1.326C12.411 12 7.635 12 7.635 12s-4.775 0-5.965-.313A1.897 1.897 0 01.32 10.36C0 9.19 0 6 0 6s0-3.19.32-4.36A1.897 1.897 0 011.67.314C2.861 0 7.635 0 7.635 0s4.776 0 5.969.313c.322.084.615.25.852.483zM10.91 6L6.545 3.273v5.454L10.91 6z" fill="inherit"/></svg>
